app/assets/v2/images/chains/ethereum-classic.svg

<svg width="25" height="39" viewBox="0 0 25 39" fill="none" xmlns="http://www.w3.org/2000/svg">
<path d="M24.5764 17.6997C20.3467 15.4563 15.9394 13.1047 12.5271 11.2866L0.576353 17.6979C4.90335 11.2681 8.50761 5.91979 12.5271 1.63122e-05C16.5516 5.90738 20.9986 12.4279 24.5764 17.6997ZM24.1139 19.4711L12.5134 25.6616L1.06247 19.516L12.5035 13.3201L24.1139 19.4711ZM12.5295 27.6491L24.5749 21.3061L12.5818 38.8678L0.580878 21.2678L12.5295 27.6491Z" fill="#0C8412"/>
<path d="M12.5271 11.2866L0.576318 17.6979C4.90332 11.2681 12.5271 1.52636e-05 12.5271 1.52636e-05L12.5271 11.2866ZM12.5134 25.6616L1.06243 19.516L12.5034 13.3201L12.5134 25.6616ZM12.5294 27.6491L12.5817 38.8678L0.580832 21.2678L12.5294 27.6491Z" fill="#3CBA3C"/>
<path d="M24.1139 19.4711L12.5134 18.5216L1.06248 19.516L12.5035 13.3201L24.1139 19.4711Z" fill="#034C03"/>
<path d="M12.5134 18.5216L1.06242 19.516L12.5034 13.3201L12.5134 18.5216L12.5134 18.5216Z" fill="#166816"/>
</svg>

<svg xmlns="http://www.w3.org/2000/svg" width="25" height="39" fill="none"><path fill="#0C8412" d="M24.576 17.7c-4.23-2.244-8.637-4.595-12.049-6.413l-11.95 6.41C4.902 11.269 8.506 5.92 12.526 0 16.552 5.907 21 12.428 24.577 17.7zm-.462 1.771l-11.6 6.19-11.452-6.145 11.442-6.196 11.61 6.151zM12.529 27.65l12.046-6.343-11.993 17.562L.58 21.268l11.949 6.381z"/><path fill="#3CBA3C" d="M12.527 11.287l-11.95 6.41C4.902 11.269 12.526 0 12.526 0v11.287zm-.014 14.375l-11.45-6.146 11.44-6.196.01 12.342zm.016 1.987l.053 11.219L.58 21.268l11.948 6.381z"/><path fill="#034C03" d="M24.114 19.471l-11.6-.95-11.452.995 11.442-6.196 11.61 6.151z"/><path fill="#166816" d="M12.513 18.522l-11.45.994 11.44-6.196.01 5.202z"/></svg>
